X:1280
T:Phil Cunningham's #2
M:C|
L:1/8
C:Phil Cunningham/Arr. Ciarn  Gealbhin
S:Ciarn  Gealbhin
R:reel
Z:Devin McCabe
K:E
BA|:G~B,3 GB,BG|FAGF ECB,C|G~B,3 GB,BG|EccB cBcd|
!edcB GEBG|FAGE FECE|G~B,3 GB,BG|1FB,DF E2BA:|2FB,DF E3F|
!:GBdf eccA|Bdfa g~e3|ceAc BAGA|FAcf d~B3|
!GBgf eccA|Bdfa g~e3|ceAc BAGA|FB,DF E3F:|
